X:2
T:Rakish Paddy
R:reel
C:Syracuse session setting
L:1/8
M:4/4
K:Dmix
&quot;C&quot;c3B c2AB|cBAG EG~G2|&quot;D&quot;Add^c defe|dcAG FGAB|
&quot;C&quot;c3B c2AB|&quot;D&quot;cAAG EFGE|DEFG ABcA|[1 dcAG FGAB:|[2 dcAG FDD2|]
&quot;C&quot;eg~g2 ag~g2|eg~g2 edBd|&quot;Am&quot;ea~a2 bgag|eaag edBd|
&quot;C&quot;eg~g2 ag~g2|egge &quot;D&quot;defg|afge fde^c|[1 dcAG FDD2:|[2 dcAG FGAB|]
</abc>
